X: 28982
T: Narry The Piper
R: jig
M: 6/8
K: Edorian
E2B E2B|BAG FED|E2B E2B|BAF d3|
E2B E2B|BAG FED|AFA d2F|E3 B3||
AFA d2f|edc d2B|B2e e2f|g2e fdB|
AFA d2f|edB d2B|AFA d2F|E3 B3||

